images/icons/v2/video-solid-24.svg

<svg height="24" viewBox="0 0 24 24" width="24" xmlns="http://www.w3.org/2000/svg"><path d="m23 8.06v7.88a1 1 0 0 1 -1.42.91l-3.58-1.65v-6.4l3.58-1.65a1 1 0 0 1 1.42.91zm-6.5 8.94v-10a3 3 0 0 0 -3-3h-9.5a3 3 0 0 0 -3 3v10a3 3 0 0 0 3 3h9.5a3 3 0 0 0 3-3z"/></svg>

<svg xmlns="http://www.w3.org/2000/svg" width="24" height="24" viewBox="0 0 24 24"><title>video-solid-24</title><path d="M23,8.06v7.88a1,1,0,0,1-1.42.91L18,15.2V8.8l3.58-1.65A1,1,0,0,1,23,8.06ZM16.5,17V7a3,3,0,0,0-3-3H4A3,3,0,0,0,1,7V17a3,3,0,0,0,3,3h9.5A3,3,0,0,0,16.5,17Z"/></svg>
